X: 10764
T: Dr. MacPhail's
R: reel
M: 4/4
K: Amajor
||c2 eA A/A/A fe|faef aefa|c2 eA A/A/A fe|faef aAcB|
c2 eA A/A/A fe|faef aefa|c2ef Acfe|faef aAcB||
c2ea dfce|d2fa eafe|c2ea dfce|faef aAcB|
c2ea dfce|d2fa eafe|c2ef Acfe|faef aAcB||

